assets/illustrations/linkedin.svg

<svg width="40" height="41" viewBox="0 0 40 41" fill="none" xmlns="http://www.w3.org/2000/svg">
<g id="linkedin">
<path id="Vector" d="M37.0407 0.0317383H2.95044C1.32288 0.0317383 0 1.32311 0 2.91619V37.1453C0 38.7384 1.32288 40.0317 2.95044 40.0317H37.0407C38.6712 40.0317 40 38.7384 40 37.1453V2.91619C40 1.32311 38.6722 0.0317383 37.0407 0.0317383Z" fill="#F2EFDE"/>
<path id="Vector_2" d="M5.92634 15.0268H11.8656V34.1153H5.92634V15.0268ZM8.89742 5.53809C10.7953 5.53809 12.3363 7.07908 12.3363 8.9778C12.3363 10.8765 10.7953 12.4185 8.89742 12.4185C6.99958 12.4185 5.45557 10.8775 5.45557 8.9778C5.45557 7.0781 6.99172 5.53809 8.89742 5.53809Z" fill="#247022"/>
<path id="Vector_3" d="M15.5879 15.0269H21.2745V17.6362H21.3561C22.1473 16.1355 24.0824 14.5532 26.969 14.5532C32.976 14.5532 34.0866 18.506 34.0866 23.6469V34.1154H28.1543V24.8331C28.1543 22.6199 28.116 19.7718 25.0712 19.7718C22.0264 19.7718 21.5133 22.1845 21.5133 24.6748V34.1154H15.5879V15.0269Z" fill="#247022"/>
</g>
</svg>

<svg width="40" height="41" fill="none" xmlns="http://www.w3.org/2000/svg"><path d="M37.04.032H2.95C1.323.032 0 1.323 0 2.916v34.23c0 1.592 1.323 2.886 2.95 2.886h34.09c1.631 0 2.96-1.294 2.96-2.887V2.916C40 1.323 38.672.032 37.04.032Z" fill="#F2EFDE"/><path d="M5.926 15.027h5.94v19.088h-5.94V15.027Zm2.971-9.489a3.44 3.44 0 0 1 0 6.88 3.444 3.444 0 0 1-3.441-3.44c0-1.9 1.536-3.44 3.441-3.44Zm6.691 9.489h5.687v2.61h.081c.791-1.502 2.726-3.084 5.613-3.084 6.007 0 7.118 3.953 7.118 9.094v10.468h-5.933v-9.282c0-2.213-.038-5.061-3.083-5.061-3.045 0-3.558 2.413-3.558 4.903v9.44h-5.925V15.027Z" fill="#247022"/></svg>
